X:1
T:All the Way with Jesus
T:All the Way with Jesus
T:Bentley DeForest Ackley
T:Alfred Henry Ackley, 1911
T:Public Domain Courtesy of the Cyber Hymnal™
T:Public Domain Courtesy of the Cyber Hymnal™
C:Bentley DeForest Ackley
Z:Public Domain
Z:Courtesy of the Cyber Hymnal™
%%score ( 1 2 ) ( 3 4 )
L:1/8
Q:1/4=100
M:4/4
K:Ab
V:1 treble 
V:2 treble 
V:3 bass 
V:4 bass 
V:1
 [Ec][DB] | [CB][CA][CG][CA] [CB][CA][CE][CF] | [DA]2 [DG]4 [Gd][Gc] | %3
w: 1.~Thro’ life’s|pil- grim way I’ll jour- ney with my|Sav- ior, In the|
w: 2.~He will|ne- ver, ne- ver leave me nor for-|sake me; If in|
w: 3.~E- ven|now I seem to hear the songs of|glo- ry, From the|
w: 4.~When the|en- e- mies of Je- sus would a-|larm me, Then I|
 [Gc][GB][^F=A][GB] [Gc][GB][EG]E | [Ec]6 [Ec][DB] | [CB][CA][CG][CA] [CB][CA]E[EF] | %6
w: night of care He’ll lead me to the|day, Till I|en- ter Heav- en’s por- tals by His|
w: Him I put my trust I shall not|stray, For He|knows the path that lead- eth thro’ the|
w: souls that stand re- deemed be- fore His|throne; I re-|joice, for some day I shall sing that|
w: cry for help to Him who is my|friend, And He|al- ways an- swers e’er my foes can|
 [EG]2 [EB]4 [EB][EB] | [F=d][Ac][=DF][DG] [DA][DB][Ac][Ad] | [Ge]6 ||"^Refrain" [Ge][Fd] | %10
w: fa- vor, Trust- ing,|I will go with Je- sus all the|way.||
w: val- ley, And with|Him there’s light and glo- ry all the|way.|I’ll go|
w: sto- ry, Of the|Christ who brought me safe- ly to my|home.||
w: harm me, He who|con- quered death will keep me to the|end.||
 [Ec][CE][=B,=D][CE] [C^B]2 [CA]2 | [DG]2 [Ge]4 [Ge][Ge] | [Ge][Gd][DF][DG] [Ec]2 [DB]2 | %13
w: |||
w: with Him all the way to|glo- ry, I will|go with Je- sus all the|
w: |||
w: |||
 [CE]6 [CE][CE] | [DF][D=E][DF][FA] [Fd]2 [DF]2 | [CE]2 [Ec]4 [Ec][Ec] | %16
w: |||
w: way, Till I|stand with- in the home- land|por- tals, I will|
w: |||
w: |||
 [Ec][EB][Ge][Gd] [Gc]2 B2 | [EA]6 |] %18
w: ||
w: go with Je- sus all the|way.|
w: ||
w: ||
V:2
 x2 | x8 | x8 | x7 E | x8 | x6 E x | x8 | x8 | x6 || x2 | x8 | x8 | x8 | x8 | x8 | x8 | x6 (GE) | %17
 x6 |] %18
V:3
 [A,,A,][A,,A,] | [A,,E,][A,,E,][A,,E,][A,,E,] [A,,E,][A,,E,][A,,A,][A,,A,] | %2
w: ~ ~|~ ~ ~ ~ ~ ~ ~ ~|
 [B,,E,]2 [E,B,]4 [E,B,][E,E] | [E,E][E,E][E,C][E,D] [E,E][E,D][E,B,][E,G,] | A,6 [A,,A,][A,,A,] | %5
w: ~ ~ ~ ~|~ ~ ~ ~ ~ ~ ~ ~|~ ~ ~|
 [A,,E,][A,,E,][A,,A,][A,,A,] [A,,E,][A,,E,][A,,C][A,,_C] | [B,,B,]2 [B,,G,]4 [B,,G,][B,,G,] | %7
w: ~ ~ ~ ~ ~ ~ ~ ~|~ ~ ~ ~|
 [B,,B,][B,,B,][B,,A,][B,,G,] [B,,F,][B,,F,][B,,B,][B,,B,] | [E,B,]6 || [E,B,][E,G,] | %10
w: ~ ~ ~ ~ ~ ~ ~ ~|~|~ ~|
 [A,,A,][A,,A,][A,,A,][A,,A,] [A,,E,]2 [A,,A,]2 | [E,B,]2 [E,D]4 [E,D][E,D] | %12
w: ~ ~ ~ ~ ~ ~|~ ~ ~ ~|
 [E,B,][E,B,][E,B,][E,B,] [E,G,]2 [E,G,]2 | A,6 [A,,A,][A,,A,] | %14
w: ~ ~ ~ ~ ~ ~|~ Yes, all|
 [D,A,][D,^G,][D,A,][D,D] [D,A,]2 [D,A,]2 | [A,,A,]2 [A,,A,]4 A,A, | %16
w: the way * * * *||
 [E,G,][E,G,][E,B,][E,F] [E,E]2 [E,D]2 | [A,,A,C]6 |] %18
w: ||
V:4
 x2 | x8 | x8 | x8 | A,6 x2 | x8 | x8 | x8 | x6 || x2 | x8 | x8 | x8 | A,F,E,C, A,,2 x2 | x8 | %15
 x6 A,A, | x8 | x6 |] %18

